public/assets/images/theme-icon-smile.svg

<svg fill="none" height="58" viewBox="0 0 60 58" width="60" xmlns="http://www.w3.org/2000/svg"><g fill="#2b296a"><path d="m22.6208 57.1543c-11.2987-.7787-20.50286-7.4677-21.935646-20.0668-.203004-.8775-.273835-1.7803-.210214-2.6787.288115-1.3471.6541-3.5664 1.40942-3.7533 1.50287-.3737 3.84671-.1869 4.81229.7787 1.34777 1.5495 2.19238 3.4723 2.4217 5.5131.2523 1.9483.95255 3.8117 2.04595 5.4439 1.0934 1.6323 2.5501 2.989 4.2558 3.9637 1.7058.9747 3.6142 1.5409 5.5755 1.6542s3.9222-.2293 5.7289-1.0011c9.5077-4.1738 17.863-9.8037 23.6954-18.6885 1.8533-2.8267 4.1193-1.7677 6.3307-.3427 2.2115 1.425 4.1349 3.3484 2.3361 5.6767-9.0795 12.0151-20.5885 20.5262-35.695 23.4463-.2553.0371-.5129.0553-.7709.0545z"/><path d="m17.3414 12.1929c.6229-3.66758.8176-6.29176 1.5573-8.74462.6697-2.18033 2.0091-3.488524 4.6722-1.9 4.3528 2.57745 5.6844 10.49672 1.8455 13.72052-1.1759.9967-3.73 1.6663-4.8746 1.0434-1.573-.8566-2.4373-3.0602-3.2004-4.1193z"/><path d="m49.0027 10.7601c.0545 3.3717-2.5541 6.7668-5.2094 6.6188-3.3795-.2024-4.5632-2.336-4.5709-5.4508 0-3.69097 2.3983-7.63112 4.6721-7.61555 2.4528 0 5.0537 3.29385 5.1082 6.44755z"/></g></svg>

<svg width="60" height="58" viewBox="0 0 60 58" fill="none" xmlns="http://www.w3.org/2000/svg">
<path d="M22.6208 57.1543C11.3221 56.3756 2.11794 49.6866 0.685154 37.0875C0.48215 36.21 0.411319 35.3072 0.47494 34.4088C0.763055 33.0617 1.12904 30.8424 1.88436 30.6555C3.38723 30.2818 5.73107 30.4686 6.69665 31.4342C8.04442 32.9837 8.88903 34.9065 9.11835 36.9473C9.37065 38.8956 10.0709 40.759 11.1643 42.3912C12.2577 44.0235 13.7144 45.3802 15.4201 46.3549C17.1259 47.3296 19.0343 47.8958 20.9956 48.0091C22.9569 48.1224 24.9178 47.7798 26.7245 47.008C36.2322 42.8342 44.5875 37.2043 50.4199 28.3195C52.2732 25.4928 54.5392 26.5518 56.7506 27.9768C58.9621 29.4018 60.8855 31.3252 59.0867 33.6535C50.0072 45.6686 38.4982 54.1797 23.3917 57.0998C23.1364 57.1369 22.8788 57.1551 22.6208 57.1543Z" fill="#2B296A"/>
<path d="M17.3414 12.1929C17.9643 8.52532 18.159 5.90114 18.8987 3.44828C19.5684 1.26795 20.9078 -0.040244 23.5709 1.54828C27.9237 4.12573 29.2553 12.045 25.4164 15.2688C24.2405 16.2655 21.6864 16.9351 20.5418 16.3122C18.9688 15.4556 18.1045 13.252 17.3414 12.1929Z" fill="#2B296A"/>
<path d="M49.0027 10.7601C49.0572 14.1318 46.4486 17.5269 43.7933 17.3789C40.4138 17.1765 39.2301 15.0429 39.2224 11.9281C39.2224 8.23713 41.6207 4.29698 43.8945 4.31255C46.3473 4.31255 48.9482 7.6064 49.0027 10.7601Z" fill="#2B296A"/>
</svg>
